!!!OTL: ICH SOLLT EIN NOENNLEIN WERDEN
!!!ARE: Europa, Mitteleuropa, Deutschland
!!!SCT: E0919
!!!YEM: Copyright 1995, estate of Helmut Schaffrath.
**kern
*ICvox
*Ivox
*M4/4
*k[]
*C:
{4c
=1
4c
4c
4B
4A
=2
2G
4G}
{4G
=3
4A
4c
4c
4B
=4
2c
4r}
{4c
=5
4c
4c
4B
4A
=6
2G
4G}
{4G
=7
4A
4c
4c
4B
=8
2c
4r}
{4c
=9
4c
4c
4g
4c
=10
4B
4B
2A}
=11
{4d
4d
4d
4c
=12
4B
4A
4G}
{4G
=13
4A
4c
4c
4B
=14
2c
4r}
{4c
=15
4c
4c
4g
4c
=16
4B
4B
2A}
=17
{4d
4d
4d
4c
=18
4B
4A
4G}
{4G
=19
4A
4c
4c
4B
=20
2c
4r}
==
!!!AGN: Ehestands - Lied, Nonnen - Klage
!!!ONB: ESAC (Essen Associative Code) Database: ERK2
!!!AMT: simple quadruple
!!!AIN: vox
!!!EED: Helmut Schaffrath
!!!EEV: 1.0
*-
